X: 76
M: C|
L: 1/8
K: D
d2df ecaA | B2dB Adfa |\
gbfa gbag | fedc d2 :|
|: g2 |\
fdaf ecBA | dBfd cAGF |\
d2df ecaA | B2dB AdFA |\

